X:13011
T:Merry Blacksmith, The
R:Reel
C:Trad.
O:Ireland
M:4/4
L:1/8
Q:1/4=140
K:D
A2|"D"d2dA BAFA|dcdA BAFA|ABde f2ed|"G"Beed egfe|
"D"d2dA BAFA|dcdA BAFA|ABde fdec|"A"dBAF "D"D2:|
|:fg|"D"a2ag f2fe|d2dA BAFA|ABde f2ed|"G"Beed "A"egfe|
"D"a2ag f2fe|d2dA BAFA|"G"ABde fdec|"A"dBAF "D"D2:|

